X:1
T:Partition sans titre
C:Compositeur / Arrangeur
L:1/8
M:4/4
I:linebreak $
K:D
V:1 treble nm="Violon" snm="Vln."
V:1
"Em" BEED B2 ed | BdAG"D" FEGA |"Em" BEED B2 ed | B2 AG FE (3EEE |"Em" BEED B2 ed | B2 AG"D" FEGA | %6
"Em" BE (3EEE B2 ed | B2 AG FE (3EEE |"D" d2 fd Adfd | d2 fd"A" Aeef |"D" d2 fd adfd | %11
"G" B/c/d AG"D" FD (3DDD |"D" d2 fd Adfd | d2 fd"A7" Aeef | gg g2"D" fffe | edBA"Em" Beed |] %16
